src/assets/img/icons/duotone-icons/General/Like.svg

<?xml version="1.0" encoding="UTF-8"?>
<svg width="24px" height="24px" viewBox="0 0 24 24" version="1.1" xmlns="http://www.w3.org/2000/svg" xmlns:xlink="http://www.w3.org/1999/xlink">
    <!-- Generator: Sketch 52.2 (67145) - http://www.bohemiancoding.com/sketch -->
    <title>Stockholm-icons / General / Like</title>
    <desc>Created with Sketch.</desc>
    <g id="Stockholm-icons-/-General-/-Like" stroke="none" stroke-width="1" fill="none" fill-rule="evenodd">
        <rect id="bound" x="0" y="0" width="24" height="24"></rect>
        <path d="M9,10 L9,19 L10.1525987,19.3841996 C11.3761964,19.7920655 12.6575468,20 13.9473319,20 L17.5405883,20 C18.9706314,20 20.2018758,18.990621 20.4823303,17.5883484 L21.231529,13.8423552 C21.5564648,12.217676 20.5028146,10.6372006 18.8781353,10.3122648 C18.6189212,10.260422 18.353992,10.2430672 18.0902299,10.2606513 L14.5,10.5 L14.8641964,6.49383981 C14.9326895,5.74041495 14.3774427,5.07411874 13.6240179,5.00562558 C13.5827848,5.00187712 13.5414031,5 13.5,5 L13.5,5 C12.5694044,5 11.7070439,5.48826024 11.2282564,6.28623939 L9,10 Z" id="Path-42" fill="#335EEA"></path>
        <rect id="Rectangle-153" fill="#335EEA" opacity="0.3" x="2" y="9" width="5" height="11" rx="1"></rect>
    </g>
</svg>

<svg width="24" height="24" viewBox="0 0 24 24" xmlns="http://www.w3.org/2000/svg"><g fill="none" fill-rule="evenodd"><path d="M0 0h24v24H0z"/><path d="M9 10v9l1.153.384a12 12 0 003.794.616h3.594a3 3 0 002.941-2.412l.75-3.746a3 3 0 00-3.142-3.581l-3.59.239.364-4.006A1.37 1.37 0 0013.5 5a2.65 2.65 0 00-2.272 1.286L9 10z" fill="#335EEA"/><rect fill="#335EEA" opacity=".3" x="2" y="9" width="5" height="11" rx="1"/></g></svg>
